X: 6
T: The Tenpenny Bit
R: jig
M: 6/8
L: 1/8
K: Edor
|:d/c/ | BEE BEE | FDD DFA | BEE BEE | ABc dcd |
BEE BEE | FDD DFA | ABc d2F | FEE E2 :|
|:e | eBB eBB | ABc dcd | eBB eBB | ABc d2e |
eBB eBB | ABc dcd | AFA d2F | FEE E2 :|


Tune 109	Setting 12688

